src/images/svg/keep-browser-up-to-date.svg

<svg role="img" width="64px" height="64px" viewBox="0 0 64 64" version="1.1" xmlns="http://www.w3.org/2000/svg"
    xmlns:xlink="http://www.w3.org/1999/xlink">
    <title id='browser-icon-title'>Keep browser up-to-date</title>
    <defs>
        <linearGradient x1="0.0128259391%" y1="100%" x2="99.9871741%" y2="0%" id="linearGradient-1">
            <stop stop-color="#FF444F" offset="0%"></stop>
            <stop stop-color="#FF6444" offset="100%"></stop>
        </linearGradient>
    </defs>
    <g id="icons/browser-up-to-date" stroke="none" stroke-width="1" fill="none" fill-rule="evenodd">
        <g transform="translate(0.000000, -1.000000)">
            <rect id="bg" x="0" y="1" width="64" height="64"></rect>
            <path
                d="M3.00028311,14.9917899 L32.0002831,15 C32.5525678,15.0001564 33,15.4479984 33,16.0002831 C33,16.5131189 32.6136949,16.9356809 32.1163399,16.9933052 L31.9997169,17 L3,16.9917899 L3,55.9917899 C3.04328907,55.9917899 3.0859357,55.9945405 3.12777463,55.9998765 L5,56 L5,21 C5,19.9456382 5.81587779,19.0818349 6.85073766,19.0054857 L7,19 L33,19 C33.5522847,19 34,19.4477153 34,20 C34,20.5128358 33.6139598,20.9355072 33.1166211,20.9932723 L33,21 L7,21 L7,56 L26,56 C26.3343532,56 26.6465845,56.1671011 26.8320503,56.4452998 L28.5357538,59.0008551 L35.4641234,59.0119292 L37.1668633,56.4469329 C37.3521674,56.1677919 37.6649518,56 38,56 L56.882,55.9997899 L56.9298094,55.9942149 L56.9520285,55.9342179 C56.9729648,55.8657304 56.9894806,55.7718873 56.99643,55.653729 L57,55.5275041 L57,31 C57,30.4477153 57.4477153,30 58,30 C58.5128358,30 58.9355072,30.3860402 58.9932723,30.8833789 L59,32 L59,55.5275041 C59,55.6903664 58.9900594,55.8485337 58.9705303,56.0009118 L60.882,55.9997899 L60.9298094,55.9942149 L60.9520285,55.9342179 C60.9729648,55.8657304 60.9894806,55.7718873 60.99643,55.653729 L61,55.5275041 L61,27 C61,26.4477153 61.4477153,26 62,26 C62.5128358,26 62.9355072,26.3860402 62.9932723,26.8833789 L63,27 L63,55.5275041 C63,55.7658177 62.9787152,55.9940783 62.9372488,56.2088578 C63.5838309,56.5217706 64,57.1714071 64,58 L64,63 C64,64.1821202 63.1529468,65 62,65 L2,65 C0.847053233,65 0,64.1821202 0,63 L0,58 C0,57.1923032 0.395443282,56.5546504 1.013712,56.2317426 C1.00923958,56.2058796 1.00696215,56.1785021 1.0051552,56.1509009 L1,55.9917899 L1,16.9917899 C1,15.8617651 1.76497549,15.0667462 2.84404266,14.9968066 L3.00028311,14.9917899 Z M25.4648162,58 L2,58 L2,63 L62,63 L62,58 L38.536446,58 L36.8331367,60.5658541 C36.6475193,60.845467 36.3340159,61.0133221 35.9984016,61.0127857 L27.9984016,61 C27.6646151,60.9994652 27.3531014,60.8324277 27.1679497,60.5547002 L25.4648162,58 Z M49.5,0.991789819 C57.5081289,0.991789819 64,7.35654779 64,15.4917898 C64,23.6270318 57.5081289,29.9917898 49.5,29.9917898 C41.4918711,29.9917898 35,23.6270318 35,15.4917898 C35,7.35654779 41.4918711,0.991789819 49.5,0.991789819 Z M49.5,2.99178982 C42.5495617,2.99178982 37,8.507747 37,15.4917898 C37,22.4758326 42.5495617,27.9917898 49.5,27.9917898 C56.4504383,27.9917898 62,22.4758326 62,15.4917898 C62,8.507747 56.4504383,2.99178982 49.5,2.99178982 Z M56.86647,11.1148587 C57.4274487,12.3307283 57.7241379,13.7002574 57.7241379,15.0759741 C57.7241379,19.2470766 55.0673334,22.7367099 51.5407322,23.5618058 L51.3043564,23.6128429 L51.8111812,24.0501022 C52.1981269,24.3837186 52.2689435,25.003513 51.9694772,25.4345847 C51.7949813,25.6856994 51.5330061,25.8171866 51.2687166,25.8171866 C51.1169006,25.8171866 50.9644921,25.7742857 50.826895,25.6858438 L50.7267149,25.6109323 L48.06762,23.3173836 C47.8482274,23.1281451 47.7214054,22.8357795 47.7241379,22.5263979 C47.7265566,22.2620976 47.8241581,22.0114355 47.992195,21.8292882 L48.0819685,21.7441782 L50.7410633,19.5465378 C51.1344891,19.2216872 51.6889878,19.3134703 51.9805857,19.7507296 C52.2497529,20.1548295 52.2002578,20.7127049 51.8819745,21.0516446 L51.7968328,21.1316027 L51.1988257,21.6260976 C53.9116116,20.9794901 55.9527966,18.2889018 55.9527966,15.0759741 C55.9527966,13.9977793 55.730164,12.9690856 55.2909158,12.0177373 C55.0668946,11.5330395 55.2386132,10.9379957 55.6736959,10.6884277 C56.1078526,10.4393757 56.6424487,10.6301609 56.86647,11.1148587 Z M49.3197328,5.63671441 L49.4209471,5.70641419 L52.3458161,7.99990006 C52.5871369,8.1891333 52.7271436,8.48149078 52.7241379,8.79034828 C52.7214777,9.05508329 52.613747,9.30580172 52.4288081,9.4876283 L52.3300336,9.57254655 L49.4051645,11.7706424 C49.230538,11.9016104 49.0268917,11.9650318 48.8252818,11.9650318 C48.5274493,11.9650318 48.2331805,11.8268452 48.0417531,11.5659406 C47.7461526,11.1618516 47.8001973,10.6039916 48.1502287,10.2650612 L48.2438719,10.1851053 L48.9021583,9.69113964 C45.9177229,10.3377293 43.6730322,13.0282441 43.6730322,16.240568 C43.6730322,17.3187332 43.9179169,18.3479144 44.4005585,19.2992366 C44.6469704,19.7839211 44.4580885,20.3789488 43.9795199,20.627994 C43.8369675,20.7022436 43.6847419,20.7378216 43.535062,20.7378216 C43.1817357,20.7378216 42.8406284,20.5418853 42.6675291,20.2015749 C42.050481,18.9857385 41.7241379,17.6157314 41.7241379,16.240568 C41.7241379,12.0681123 44.6492518,8.5767639 48.5310725,7.75428437 L48.7855709,7.70444866 L48.2280893,7.26720135 C47.8024687,6.93359413 47.724574,6.31381664 48.0539718,5.88275679 C48.3580313,5.48437947 48.903285,5.38695441 49.3197328,5.63671441 Z"
                id="Combined-Shape" fill="url(#linearGradient-1)"></path>
        </g>
    </g>
</svg>

<svg width="64" height="64" xmlns="http://www.w3.org/2000/svg"><defs><linearGradient x1=".013%" y1="100%" x2="99.987%" y2="0%" id="a"><stop stop-color="#FF444F" offset="0%"/><stop stop-color="#FF6444" offset="100%"/></linearGradient></defs><g fill="none" fill-rule="evenodd"><path d="M0 0h64v64H0z"/><path d="M3 14.992L32 15a1 1 0 01.116 1.993L32 17l-29-.008v39c.043 0 .086.003.128.008H5V21a2 2 0 011.85-1.995L7 19h26a1 1 0 01.117 1.993L33 21H7v35h19a1 1 0 01.832.445l1.704 2.556 6.928.01 1.703-2.564A1 1 0 0138 56h18.882l.048-.006.022-.06a1.23 1.23 0 00.044-.28l.004-.126V31a1 1 0 011.993-.117L59 32v23.528c0 .162-.01.32-.03.473L60.883 56l.048-.006.022-.06a1.23 1.23 0 00.044-.28l.004-.126V27a1 1 0 011.993-.117L63 27v28.528c0 .238-.021.466-.063.68.647.314 1.063.963 1.063 1.792v5c0 1.182-.847 2-2 2H2c-1.153 0-2-.818-2-2v-5c0-.808.395-1.445 1.014-1.768a.778.778 0 01-.009-.081L1 55.99v-39c0-1.13.765-1.924 1.844-1.994L3 14.992zM25.465 58H2v5h60v-5H38.536l-1.703 2.566a1 1 0 01-.835.447l-8-.013a1 1 0 01-.83-.445L25.465 58zM49.5.992c8.008 0 14.5 6.365 14.5 14.5s-6.492 14.5-14.5 14.5S35 23.627 35 15.492 41.492.992 49.5.992zm0 2c-6.95 0-12.5 5.516-12.5 12.5s5.55 12.5 12.5 12.5S62 22.476 62 15.492s-5.55-12.5-12.5-12.5zm7.366 8.123a9.515 9.515 0 01.858 3.961c0 4.171-2.657 7.66-6.183 8.486l-.237.05.507.438c.387.334.458.954.158 1.385a.855.855 0 01-.7.382.814.814 0 01-.442-.131l-.1-.075-2.66-2.294a1.032 1.032 0 01-.343-.79c.003-.265.1-.516.268-.698l.09-.085 2.66-2.197c.392-.325.947-.234 1.239.204.269.404.22.962-.099 1.3l-.085.08-.598.495c2.713-.647 4.754-3.337 4.754-6.55a7.24 7.24 0 00-.662-3.058c-.224-.485-.052-1.08.383-1.33.434-.249.968-.058 1.192.427zM49.32 5.637l.1.07L52.347 8a.992.992 0 01.083 1.488l-.099.085-2.925 2.198a.964.964 0 01-1.363-.205.997.997 0 01.108-1.3l.094-.08.658-.495c-2.984.647-5.229 3.337-5.229 6.55 0 1.078.245 2.107.728 3.058a.992.992 0 01-.421 1.329.96.96 0 01-.445.11.974.974 0 01-.867-.536 8.793 8.793 0 01-.944-3.961c0-4.173 2.925-7.664 6.807-8.487l.255-.05-.558-.437a.995.995 0 01-.174-1.384.966.966 0 011.266-.246z" fill="url(#a)" transform="translate(0 -1)"/></g></svg>
